icons/svg/microphone-muted_32.svg

<?xml version="1.0" encoding="UTF-8"?>
<svg width="32px" height="32px" viewBox="0 0 32 32" version="1.1" xmlns="http://www.w3.org/2000/svg" xmlns:xlink="http://www.w3.org/1999/xlink">
    <!-- Generator: Sketch 58 (84663) - https://sketch.com -->
    <title>microphone-muted_32</title>
    <desc>Created with Sketch.</desc>
    <g id="Icons-Webex" stroke="none" stroke-width="1" fill="none" fill-rule="evenodd">
        <g id="audio/microphone-muted_32" fill="#171B1F">
            <path d="M21.4997538,20.56 C21.4997538,23.56 19.0597538,26 16.0597538,26 L16.0167538,26 C13.0177538,26 10.5767538,23.56 10.5767538,20.56 L10.5767538,20.47 L21.4997538,9.46 L21.4997538,20.56 Z M10.5767538,7.44 C10.5767538,4.44 13.0177538,2 16.0597538,2 C19.0597538,2 21.4997538,4.44 21.4997538,7.44 L21.4997538,8.04 L10.5767538,19.051 L10.5767538,7.44 Z M27.3517538,2.851 C27.1557538,2.657 26.8397538,2.658 26.6447538,2.854 L22.4797538,7.052 C22.2777538,3.682 19.4787538,1 16.0167538,1 C12.4657538,1 9.57675385,3.889 9.57675385,7.44 L9.57675385,20.059 L4.64475385,25.03 C4.45075385,25.226 4.45175385,25.543 4.64775385,25.737 C4.74575385,25.834 4.87275385,25.882 4.99975385,25.882 C5.12775385,25.882 5.25675385,25.833 5.35475385,25.734 L9.64075385,21.414 C10.0387538,24.401 12.4877538,26.743 15.5227538,26.975 C15.5137538,27.013 15.4997538,27.048 15.4997538,27.088 L15.4997538,30 L11.7687538,30 C11.4927538,30 11.2687538,30.224 11.2687538,30.5 C11.2687538,30.776 11.4927538,31 11.7687538,31 L20.2307538,31 C20.5067538,31 20.7307538,30.776 20.7307538,30.5 C20.7307538,30.224 20.5067538,30 20.2307538,30 L16.4997538,30 L16.4997538,27.088 C16.4997538,27.049 16.4857538,27.015 16.4777538,26.979 C19.8337538,26.762 22.4997538,23.97 22.4997538,20.56 L22.4997538,8.452 L27.3547538,3.558 C27.5487538,3.362 27.5477538,3.045 27.3517538,2.851 L27.3517538,2.851 Z" id="fill"></path>
        </g>
    </g>
</svg>

<svg width="32" height="32" xmlns="http://www.w3.org/2000/svg"><path d="M21.5 20.56c0 3-2.44 5.44-5.44 5.44h-.043a5.446 5.446 0 01-5.44-5.44v-.09L21.5 9.46v11.1zM10.577 7.44c0-3 2.44-5.44 5.483-5.44 3 0 5.44 2.44 5.44 5.44v.6L10.577 19.051V7.44zm16.775-4.589a.5.5 0 00-.707.003L22.48 7.052C22.278 3.682 19.479 1 16.017 1a6.447 6.447 0 00-6.44 6.44v12.619L4.645 25.03a.5.5 0 00.71.704l4.286-4.32a6.442 6.442 0 005.882 5.561c-.01.038-.023.073-.023.113V30h-3.731a.5.5 0 000 1h8.462a.5.5 0 000-1H16.5v-2.912c0-.039-.014-.073-.022-.109 3.356-.217 6.022-3.009 6.022-6.419V8.452l4.855-4.894a.5.5 0 00-.003-.707z" fill="#171B1F" fill-rule="evenodd"/></svg>
